packages/icons/src/quote.svg

<svg width="15" height="15" viewBox="0 0 15 15" fill="none" xmlns="http://www.w3.org/2000/svg">
  <path
    fill-rule="evenodd"
    clip-rule="evenodd"
    d="M9.42503 3.44136C10.0561 3.23654 10.7837 3.2402 11.3792 3.54623C12.7532 4.25224 13.3477 6.07191 12.7946 8C12.5465 8.8649 12.1102 9.70472 11.1861 10.5524C10.262 11.4 8.98034 11.9 8.38571 11.9C8.17269 11.9 8 11.7321 8 11.525C8 11.3179 8.17644 11.15 8.38571 11.15C9.06497 11.15 9.67189 10.7804 10.3906 10.236C10.9406 9.8193 11.3701 9.28633 11.608 8.82191C12.0628 7.93367 12.0782 6.68174 11.3433 6.34901C10.9904 6.73455 10.5295 6.95946 9.97725 6.95946C8.7773 6.95946 8.0701 5.99412 8.10051 5.12009C8.12957 4.28474 8.66032 3.68954 9.42503 3.44136ZM3.42503 3.44136C4.05614 3.23654 4.78366 3.2402 5.37923 3.54623C6.7532 4.25224 7.34766 6.07191 6.79462 8C6.54654 8.8649 6.11019 9.70472 5.1861 10.5524C4.26201 11.4 2.98034 11.9 2.38571 11.9C2.17269 11.9 2 11.7321 2 11.525C2 11.3179 2.17644 11.15 2.38571 11.15C3.06497 11.15 3.67189 10.7804 4.39058 10.236C4.94065 9.8193 5.37014 9.28633 5.60797 8.82191C6.06282 7.93367 6.07821 6.68174 5.3433 6.34901C4.99037 6.73455 4.52948 6.95946 3.97725 6.95946C2.7773 6.95946 2.0701 5.99412 2.10051 5.12009C2.12957 4.28474 2.66032 3.68954 3.42503 3.44136Z"
    fill="currentColor"
  />
</svg>

<svg xmlns="http://www.w3.org/2000/svg" width="15" height="15" fill="none"><path fill="currentColor" fill-rule="evenodd" d="M9.425 3.441c.631-.204 1.359-.2 1.954.105 1.374.706 1.969 2.526 1.416 4.454-.248.865-.685 1.705-1.609 2.552-.924.848-2.206 1.348-2.8 1.348A.38.38 0 0 1 8 11.525c0-.207.176-.375.386-.375.679 0 1.286-.37 2.005-.914.55-.417.98-.95 1.217-1.414.455-.888.47-2.14-.265-2.473a1.8 1.8 0 0 1-1.366.61c-1.2 0-1.907-.965-1.876-1.839.029-.835.56-1.43 1.324-1.679m-6 0c.631-.204 1.359-.2 1.954.105C6.753 4.252 7.348 6.072 6.795 8c-.248.865-.685 1.705-1.609 2.552-.924.848-2.206 1.348-2.8 1.348A.38.38 0 0 1 2 11.525c0-.207.176-.375.386-.375.679 0 1.286-.37 2.005-.914.55-.417.98-.95 1.217-1.414.455-.888.47-2.14-.265-2.473-.353.386-.814.61-1.366.61-1.2 0-1.907-.965-1.876-1.839.029-.835.56-1.43 1.324-1.679" clip-rule="evenodd"/></svg>
